!!!COM: Palestrina, Giovanni Perluigi da
!!!OPR: Missa Je suis desheritee
!!!OMD: Benedictus
!!!OTL: Hosanna
**kern	**kern	**kern	**kern
*Ibass	*Itenor	*Icalto	*Icant
!Bassus	!Tenor	!Altus	!Cantus
*clefF4	*clefGv2	*clefG2	*clefG2
*k[b-]	*k[b-]	*k[b-]	*k[b-]
*D:aeo	*D:aeo	*D:aeo	*D:aeo
*M4/2	*M4/2	*M4/2	*M4/2
=31	=31	=31	=31
0r	0r	1d	1r
.	.	2d	1a
.	.	2d	.
=32	=32	=32	=32
0r	0r	2.f	2a
.	.	.	2a
.	.	4g	.
.	.	2a	2cc
.	.	4d	2dd
.	.	4e	.
=33	=33	=33	=33
0r	2r	4f	4a
.	.	4g	4b-
.	2A	4a	4cc
.	.	4b-	4dd
.	2A	4cc	2ee
.	.	4b-	.
.	2A	2a	2ff
=34	=34	=34	=34
0r	2c	2g	2ee
.	2d	2f	1dd
.	1A	1e	.
.	.	.	2cc#
=35	=35	=35	=35
1D	1d	1.f	0dd
2D	2r	.	.
2D	2A	4e	.
.	.	4d	.
=36	=36	=36	=36
2.F	2A	1c	1r
.	2A	.	.
4G	.	.	.
2A	2c	1r	2r
4D	2d	.	2a
4E	.	.	.
=37	=37	=37	=37
4F	4A	0r	2a
4G	4B-	.	.
2.A	4c	.	2a
.	4d	.	.
.	2e	.	2cc
4G	.	.	.
2F	[2d	.	2dd
=38	=38	=38	=38
1E	2d]	1r	4ee
.	.	.	4ff
.	2c#	.	4gg
.	.	.	4ee
1D	2.d	2r	2.ff
.	.	2d	.
.	4c	.	4ee
=39	=39	=39	=39
0r	4B-	2d	4dd
.	4A	.	4cc
.	2G	2d	2b-
.	2d	2f	2a
.	2G	2g	2dd
=40	=40	=40	=40
0r	2r	4d	2dd
.	.	4e	.
.	2d	4f	2dd
.	.	4g	.
.	2d	2a	2.ff
.	2d	[2b-	.
.	.	.	4ee
=41	=41	=41	=41
0r	2.f	2b-]	2dd
.	.	1a	2cc
.	4e	.	.
.	2d	.	1b-
.	2e	2g	.
=42	=42	=42	=42
2r	2f	1a	2.a
2A	2e	.	.
.	.	.	4b-
2A	1a	2r	4cc
.	.	.	4dd
2A	.	[2cc	[2ee
=43	=43	=43	=43
2c	2g	2cc]	2ee]
2d	2f	2a	1dd
1A	1e	1a	.
.	.	.	2cc#
=44	=44	=44	=44
0D	0d	0f#	0dd
==	==	==	==
*-	*-	*-	*-
!!!CDT: 1525/^1526/-1594/2/2
!!!OCY: Italia
!!!AGN: Mass (Parody)
!!!AST: renaissance, vocal
!!!ASW: Chanson 1533 (Lupi or Cadéac)
!!!PWK: Masses, Book 6
!!!RNB: Cadence finals: F
!!!YOR: Le Opere Complete, v. 21, p. 52
!!!YOO: Rome, Italy: Fratelli Scalera
!!!END: 1992//
!!!EED: John Miller
!!!YEC: Copyright 2000, John Miller
!!!YEN: United States of America
!!!YEM: Rights to all derivative electronic formats reserved.
!!!YEM: Refer to licensing agreement for further details.
!!!YEM: This file must be accompanied by the licensing agreement.
!!!YEM: A copy of the licensing agreement may be found at http://www.music-cog.ohio-state.edu/HumdrumDatabases/Palestrina/license.txt
!!!EMD: converted to Humdrum by Bret Aarden
